flaticon/stationery/ruler-1.svg

<svg xmlns="http://www.w3.org/2000/svg" width="32" height="32" viewBox="0 0 24 24">
    <path d="M 23.847656 6.511719 L 17.484375 0.152344 C 17.285156 -0.046875 16.964844 -0.046875 16.765625 0.152344 L 0.148438 16.765625 C -0.0507812 16.964844 -0.0507812 17.289062 0.148438 17.488281 L 6.507812 23.847656 C 6.699219 24.050781 7.066406 24.042969 7.230469 23.847656 L 23.847656 7.234375 C 24 7.125 24.097656 6.765625 23.847656 6.511719 Z M 6.871094 22.765625 L 1.234375 17.125 L 2.355469 16.003906 L 3.8125 17.460938 L 4.535156 16.738281 L 3.078125 15.28125 L 4.203125 14.15625 L 6.589844 16.546875 L 7.3125 15.824219 L 4.925781 13.433594 L 6.046875 12.3125 L 7.503906 13.765625 L 8.226562 13.042969 L 6.769531 11.589844 L 7.894531 10.464844 L 10.28125 12.851562 L 11.003906 12.132812 L 8.617188 9.742188 L 9.742188 8.617188 L 11.195312 10.074219 L 11.917969 9.351562 L 10.460938 7.894531 L 11.585938 6.773438 L 13.976562 9.160156 L 14.699219 8.4375 L 12.308594 6.050781 L 13.433594 4.925781 L 14.890625 6.382812 L 15.609375 5.660156 L 14.15625 4.203125 L 15.277344 3.082031 L 17.667969 5.46875 L 18.390625 4.746094 L 16 2.359375 L 17.125 1.234375 L 22.761719 6.871094 Z M 6.871094 22.765625"/>
</svg>

<svg xmlns="http://www.w3.org/2000/svg" width="32" height="32" viewBox="0 0 24 24">
    <path d="M23.848 6.512L17.484.152c-.199-.199-.52-.199-.718 0L.148 16.766c-.199.199-.199.523 0 .722l6.36 6.36c.191.203.558.195.722 0L23.848 7.234c.152-.109.25-.468 0-.722zM6.87 22.766l-5.637-5.641 1.121-1.121 1.458 1.457.722-.723-1.457-1.457 1.125-1.125 2.387 2.39.723-.722-2.387-2.39 1.12-1.121 1.458 1.453.723-.723L6.77 11.59l1.125-1.125 2.386 2.387.723-.72-2.387-2.39 1.125-1.125 1.453 1.457.723-.722-1.457-1.457 1.125-1.122 2.39 2.387.723-.723-2.39-2.386 1.125-1.125 1.457 1.457.718-.723-1.453-1.457 1.121-1.121 2.391 2.387.723-.723L16 2.36l1.125-1.125 5.637 5.637zm0 0"/>
</svg>
